!!!!SEGMENT: pl-kk--kk-i-10--001-001_anonim--aliud-de-passione-domini-kyrie.krn
!!!cenid: 16xx:1181
!!!COM: Anonim
!!!COM-rismID: pe30004985
!!!CDT:
!!!CNT:
!!!OPR: Aliud de Passione Domini
!!!OTL: Kyrie
!!!OMV: 001
!!!PDT:
!!!AGN: Sacred; Mass
!!!SMS-siglum: PL-Kk
!!!SMS-shelfmark: Kk.I.10
!!!SMS-shelfwork: 001-001 M
!!!SMS-variant:
!!!SMS-altvar:
!!!NIFC-rismSourceID: 1001151829
!!!NIFC-islandoraID: pl-kk:2434
!!!URL-pdf-islandora: https://repozytorium.nifc.pl/islandora/object/pl-kk%3A2434/datastream/PDF/view
!!!URL-scan: https://polish.musicsources.pl/pl/lokalizacje/galeria/rekopisy/5737 @EN{Scan on Polish Music Sources Website} @PL{Skany w portalu Dziedzictwo Muzyki Polskiej w otwartym dostępie}
!!!ONB-nifc: UWAGA: części Mszy: 1. Kyrie, 2. Sanctus 3. Agnus Dei, 4. Deo gratias. A (skan 0004-0006), T (skan 0055-0057), B (skan 0103-0105).
!!!AIN: 1 alto 1 bass 1 tenor
!!!key:
**kern	**text	**kern	**text	**kern	**text
*part3	*part3	*part2	*part2	*part1	*part1
*staff3	*staff3	*staff2	*staff2	*staff1	*staff1
*Ibass	*	*Itenor	*	*Ialto	*
*I"Bassus.	*	*I"Tenor	*	*I"Altus.	*
*I'B	*	*I'T	*	*I'A	*
*clefF4	*	*clefC4	*	*clefC4	*
*k[b-]	*	*k[b-]	*	*k[b-]	*
*F:	*	*F:	*	*F:	*
*M2/1	*	*M2/1	*	*M2/1	*
*met(C|)	*	*met(C|)	*	*met(C|)	*
=1-	=1-	=1-	=1-	=1-	=1-
1r	.	1F	Ky-	2.A/	Ky-
.	.	.	.	4A/	-ri-
2.C/	Ky-	1G	.	2c\	-e
.	.	.	.	2c\	e-
4C/	-ri-	.	.	.	.
=2-	=2-	=2-	=2-	=2-	=2-
*	*	*lig	*	*	*
2FF/	-e	1A	.	4c\	.
.	.	.	.	4B-\	.
1F	.	.	.	4A/	.
.	.	.	.	4F/	.
.	.	1G	.	2.C/	-le-
2E\	.	.	.	.	.
.	.	.	.	4C/	-i-
*	*	*Xlig	*	*	*
=3-	=3-	=3-	=3-	=3-	=3-
*	*	*lig	*	*	*
4F\	e-	1A	.	2F/	-ſon
4E\	.	.	.	.	.
*	*	*	*	*	*ij
4D/	.	.	.	4F/	Ky-
4C/	.	.	.	4E/	-ri-
4BB-/	.	1B-	.	2D/	-e
4AA/	.	.	.	.	.
2GG/	.	.	.	2.G/	e-
*	*	*Xlig	*	*	*
=4-	=4-	=4-	=4-	=4-	=4-
*	*	*lig	*	*	*
2.AA/	.	1A	ri-	.	.
.	.	.	.	4F/	.
*	*	*	*	*custos:E	*
.	.	.	.	1F	-le-
4BB-/	.	.	.	.	.
*custos:FF	*	*	*	*	*
1C	-lei-	1G	.	.	.
!	!	!	!	!LO:LB:g=original	!
.	.	.	.	2E/	-i-
*	*	*Xlig	*	*	*
!LO:LB:g=original	!	!	!	!	!
=5-	=5-	=5-	=5-	=5-	=5-
*	*	*lig	*	*	*
1FF	-ſon	1F	-e	2F/	-son
*	*	*	*	*	*Xij
.	.	.	.	2A\	Ky-
2rC	.	1A	.	2c\	-rie
*	*ij	*	*	*	*
2FF/	Ky-	.	.	2c\	e-
*	*	*Xlig	*	*	*
=6-	=6-	=6-	=6-	=6-	=6-
*	*	*lig	*	*	*
2C/	-ri-	1G	.	2.c\	-le-
2C/	-e	.	.	.	.
.	.	.	.	4c\	-i-
2D/	e-	1F	.	2A/	-ſon
*	*	*	*	*	*ij
2BB-/	.	.	.	1B-\	Ky-
*	*	*Xlig	*	*	*
=7-	=7-	=7-	=7-	=7-	=7-
*	*	*lig	*	*	*
2GG/	le-	1E	.	.	.
2AA/	-i-	.	.	2A/	-ri-
1D	-ſon	1F	.	2A/	-e
.	.	.	.	1A\	e-
*	*Xij	*Xlig	*	*	*
=8-	=8-	=8-	=8-	=8-	=8-
*	*	*custos:F	*	*	*
2D/	ky-	1D	e-	.	.
2BB-/	-ri-	.	.	2B-\	-le-
!	!	!LO:LB:g=original	!	!	!
*	*	*lig	*	*	*
4.FF/	-e	1F	.	2A/	-i-
8GG/	.	.	.	.	.
4AA/	e-	.	.	2A/	-ſon
4BB-/	.	.	.	.	.
=9-	=9-	=9-	=9-	=9-	=9-
2.C/	-le-	1E	.	2.G/	Ky-
*custos:C	*	*	*	*	*
4C/	-i-	.	.	4G/	-ri-
*	*	*Xlig	*	*	*
*	*	*lig	*	*	*
*	*	*	*	*custos:B	*
!LO:LB:g=original	!	!	!	!	!
2C/	-ſon	1G	.	2G/	-e
*	*ij	*	*	*	*
!	!	!	!	!LO:LB:g=original	!
2G\	Ky-	.	.	2B-\	e-
=10-	=10-	=10-	=10-	=10-	=10-
2F\	-ri-	1A	.	2c\	-le-
2FF/	-e	.	.	2c\	-i-
*	*	*Xlig	*	*	*
1.C	e-	1G	-le-	2.c\	-ſon
.	.	.	.	4G/	e-
=11-	=11-	=11-	=11-	=11-	=11-
.	.	1E	-i-	2.G/	-le-
2C/	-lei-	.	.	.	.
.	.	.	.	4G/	-i-
1FFl;;	-ſon	1Fl;;	-ſon.	1Al;;	-ſon
*	*Xij	*	*	*	*Xij
=12||-	=12||-	=12||-	=12||-	=12||-	=12||-
*M2/1	*	*M2/1	*	*M2/1	*
*met(C|)	*	*met(C|)	*	*met(C|)	*
*	*	*lig	*	*lig	*
0rE	.	1F	CHri-	1A	Chri-
.	.	1G	.	1B-	.
*	*	*Xlig	*	*Xlig	*
=13-	=13-	=13-	=13-	=13-	=13-
*lig	*	*lig	*	*	*
1BB-	CHri-	1F	.	1B-	-ſte
*	*	*custos:F	*	*	*
1C	.	1E	.	2G/	e-
.	.	.	.	2c\	.
*Xlig	*	*Xlig	*	*	*
!	!	!LO:LB:g=original	!	!	!
=14-	=14-	=14-	=14-	=14-	=14-
*	*	*lig	*	*	*
1D	-ſte	1F	-ſte	2.A/	-le-
*	*	*	*	*custos:B	*
.	.	.	.	4A/	-i-
*custos:C	*	*	*	*	*
!	!	!	!LO:LB:g=original	!	!
1BB-	e-	1D	.	1B-	-ſon
*	*	*Xlig	*	*	*
!LO:LB:g=original	!	!	!	!	!
=15-	=15-	=15-	=15-	=15-	=15-
*	*	*lig	*	*	*
2.C/	-le-	1E	.	2r	.
*	*	*	*	*	*ij
.	.	.	.	2G/	Chri-
4C/	-i-	.	.	.	.
1FF	-ſon	1F	.	2A/	-ſte
.	.	.	.	2A/	e-
*	*	*Xlig	*	*	*
=16-	=16-	=16-	=16-	=16-	=16-
*	*	*lig	*	*	*
!	!	!	!	!LO:N:acc=#	!
1rE	.	1G	.	2.Bn\	-le-
.	.	.	.	4B\	-i-
1C	Chri-	1E	.	2c\	-ſon
*	*	*	*	*	*Xij
.	.	.	.	2G/	Chri-
*	*	*Xlig	*	*	*
=17-	=17-	=17-	=17-	=17-	=17-
1AA	-ſte	1C	e-	1.A	-ſte
*	*	*lig	*	*	*
1FF	e-	1F	.	.	.
.	.	.	.	2A/	e-
=18-	=18-	=18-	=18-	=18-	=18-
2.C/	-le-	1E	.	2.G/	-le-
4C/	-i-	.	.	4G/	-i-
*	*	*Xlig	*	*	*
*	*	*lig	*	*	*
2C/	-ſon	1G	.	2E/	-ſon
*	*ij	*	*	*	*ij
2C/	Chri-	.	.	2E/	Chri-
=19-	=19-	=19-	=19-	=19-	=19-
2AA/	-ſte	1A	.	1F	-ſte
2FF/	e-	.	.	.	.
*	*	*Xlig	*	*	*
1.C	-le-	1G	le-	2E/	e-
.	.	.	.	2C/	.
=20-	=20-	=20-	=20-	=20-	=20-
.	.	1E	-i-	2.G/	-le-
2C/	-i-	.	.	.	.
.	.	.	.	4G/	-i-
1FFl;;	-ſon	1Fl;;	-ſon.	1Al;;	-ſon
*	*Xij	*	*	*	*Xij
!LO:LB:g=original	!LO:LB:g=original	!	!	!LO:LB:g=original	!
=21||-	=21||-	=21||-	=21||-	=21||-	=21||-
*M2/1	*	*M2/1	*	*M2/1	*
*met(C|)	*	*met(C|)	*	*met(C|)	*
*	*	*lig	*	*	*
1r	.	1F	Ky-	1rA	.
1.C	Ky-	1G	.	2.c\	Ky-
.	.	.	.	4c\	-ri-
*	*	*Xlig	*	*	*
=22-	=22-	=22-	=22-	=22-	=22-
*	*	*lig	*	*	*
.	.	1A	.	2A/	-e
2D/	-ri-	.	.	2d\	e-
2E\	-e	1G	.	2.c\	-le-
2C/	e-	.	.	.	.
.	.	.	.	4c\	-i-
*	*	*Xlig	*	*	*
=23-	=23-	=23-	=23-	=23-	=23-
*	*	*lig	*	*	*
2F\	-lei-	1A	.	2c\	-ſon
*	*	*	*	*	*ij
2F\	-ſon	.	.	2c\	Ky-
2r	.	1B-	.	2d\	-ri-
*	*ij	*	*	*	*
2GG/	Ky-	.	.	2d\	-e
*	*	*Xlig	*	*	*
=24-	=24-	=24-	=24-	=24-	=24-
*	*	*lig	*	*	*
2AA/	-rie	1A	-ri-	1.c	e-
2FF/	e-	.	.	.	.
2.C/	-le-	1G	.	.	.
.	.	.	.	2c\	-lei-
4C/	-i-	.	.	.	.
*	*	*Xlig	*	*	*
=25-	=25-	=25-	=25-	=25-	=25-
*custos:F	*	*	*	*	*
2FF/	-ſon	1F	-e	2c\	-ſon
*	*Xij	*	*	*	*Xij
!LO:LB:g=original	!	!	!	!	!
1F	ky-	.	.	2r	.
*	*	*lig	*	*	*
*	*	*	*	*custos:c	*
.	.	1A	e-	1r	.
2F\	-ri-	.	.	.	.
!	!	!	!	!LO:LB:g=original	!
=26-	=26-	=26-	=26-	=26-	=26-
2C/	-e	1G	.	2.c\	[Ky]-
2E\	e-	.	.	.	.
.	.	.	.	4c\	-ri-
*	*	*Xlig	*	*	*
*	*	*lig	*	*	*
2D\	.	1F	.	2d\	-e
2F\	.	.	.	2c\	e-
=27-	=27-	=27-	=27-	=27-	=27-
*	*	*custos:F	*	*	*
2.C/	-le-	1E	.	2.c\	-le-
4C/	-i-	.	.	4c\	-i-
*	*	*Xlig	*	*	*
!	!	!LO:LB:g=original	!	!	!
*	*	*lig	*	*	*
1FF	-ſon	1F	.	1c	-ſon
=28-	=28-	=28-	=28-	=28-	=28-
*	*	*	*	*	*ij
1.BB-	ky-	1D	.	1.B-	ky-
*	*	*Xlig	*	*	*
*	*	*lig	*	*	*
.	.	1F	.	.	.
2D/	-ri e-	.	.	2A/	ri_e-
=29-	=29-	=29-	=29-	=29-	=29-
2.C/	-le-	1E	.	2.c\	-le-
4C/	-i-	.	.	4c\	-i-
*	*	*Xlig	*	*	*
*	*	*lig	*	*	*
2C/	-ſon	1G	.	1c	-ſon
*	*ij	*	*	*	*Xij
2C/	ky-	.	.	.	.
=30-	=30-	=30-	=30-	=30-	=30-
2AA/	-rie	1A	.	1c	ky-
2FF/	e-	.	.	.	.
*	*	*Xlig	*	*	*
1.C	-le-	1G	-le-	2c\	-rie
.	.	.	.	2c\	e-
=31-	=31-	=31-	=31-	=31-	=31-
.	.	1E	-i-	2.c\	-le-
2C/	-i-	.	.	.	.
.	.	.	.	4c\	-i-
!LO:TX:b:i:t=Verte	!	!	!	!LO:TX:b:i:t=Verte.	!
1FFl;	-ſon	1Fl;	-ſon	1cl;<	-ſon.
*	*Xij	*	*	*	*
!LO:LB:g=original	!	!	!	!LO:LB:g=original	!
=32||-	=32||-	=32||-	=32||-	=32||-	=32||-
*M2/1	*	*M2/1	*	*M2/1	*
*met(C|)	*	*	*	*	*
!LO:TX:a:t=Vltimum.	!	!	!	!	!
*	*	*met(C|)	*	*	*
!	!	!	!	!LO:TX:a:t=Vltimum.	!
*	*	*	*	*met(C|)	*
4.FF/	Ky-	1A	Ky-	1.c	Ky-
8GG/	.	.	.	.	.
4AA/	.	.	.	.	.
4BB-/	.	.	.	.	.
2.C/	.	1G	-ri-	.	.
.	.	.	.	2c\	-ri-
4C/	-ri-	.	.	.	.
=33-	=33-	=33-	=33-	=33-	=33-
*	*	*lig	*	*	*
2D/	-e	1F	-e	2A/	-e
2D/	e-	.	.	2A/	e-
*	*	*custos:F	*	*	*
2.C/	-le-	1E	.	2.c\	-le-
4C/	-i-	.	.	4c\	-i-
*	*	*Xlig	*	*	*
!	!	!LO:LB:g=original	!	!	!
=34-	=34-	=34-	=34-	=34-	=34-
*	*	*lig	*	*	*
1FF,<	-ſon	1F	.	1c	-ſon
*	*ij	*	*	*	*ij
2.BB-/	Ky-	1D	.	2.B-\	Ky-
4BB-/	-ri-	.	.	4B-\	-ri-
*	*	*Xlig	*	*	*
=35-	=35-	=35-	=35-	=35-	=35-
*	*	*lig	*	*	*
2C/	-e	1E	.	2G/	-e
*custos:D	*	*	*	*	*
2C/	e-	.	.	2G/	e-
!LO:LB:g=original	!	!	!	!	!
4.D/	-le-	1F	.	2A/	-le-
8C/	.	.	.	.	.
4BB-/	.	.	.	2d\	-i-
4AA/	-i-	.	.	.	.
*	*	*Xlig	*	*	*
=36-	=36-	=36-	=36-	=36-	=36-
!	!	!	!	!LO:N:acc=#	!
2GG/	-ſon	1G	e-	2Bn\	-ſon
*	*Xij	*	*	*	*Xij
*	*	*	*	*custos:G	*
1C	ky-	.	.	2c\	ky-
*	*	*lig	*	*	*
!	!	!	!	!LO:LB:g=original	!
.	.	1E	.	2G/	-ri-
1AA/	-ri-	.	.	2A/	-e
=37-	=37-	=37-	=37-	=37-	=37-
.	.	1C	.	(1.A	e-
1FF	-e	.	.	.	.
*	*	*Xlig	*	*	*
*	*	*lig	*	*	*
.	.	1F	.	.	.
2BB-/	e-	.	.	2B-y\)	.
=38-	=38-	=38-	=38-	=38-	=38-
2.C/	-le-	1E	.	2.G/	-le-
4C/	-i-	.	.	4G/	-i-
*	*	*Xlig	*	*	*
*	*	*lig	*	*	*
2C/	-ſon	1G	.	2G/	-ſon
*	*ij	*	*	*	*
2GG/	ky-	.	.	4B-\	ky-
.	.	.	.	4B-\	-ri-
=39-	=39-	=39-	=39-	=39-	=39-
4.FF/	-ri-	1A	.	1c	-e
8GG/	.	.	.	.	.
4AA/	-e	.	.	.	.
*custos:C	*	*	*	*	*
4FF/	e-	.	.	.	.
*	*	*Xlig	*	*	*
!LO:LB:g=original	!	!	!	!	!
2C/	-le-	1G	-le-	2c\	e-
!LO:N:acc=#	!	!	!	!	!
2BBn/	.	.	.	2d\	.
=40-	=40-	=40-	=40-	=40-	=40-
2.C/	.	1E	i-	2G/	-le-
.	.	.	.	2c\	-i-
4C/	-i-	.	.	.	.
1FFl;;	-ſon	1Fl;;	-ſon.	1cl;;	-ſon
*	*Xij	*	*	*	*
==	==	==	==	==	==
*-	*-	*-	*-	*-	*-
!!!system-decoration: [(s1,s2,s3)]
!!!RDF**kern: > = above
!!!RDF**kern: < = below
!!!RDF**kern: l = terminal long
!!!ENC: Andrzej Kubiczek
!!!END: 2021-07-03
!!!ENC: Krzysztof Stępień
!!!END: 2021-06-22
!!!YEC: Copyright 2022 Narodowy Instytut Fryderyka Chopina (https://polishscores.org)
!!!YEM: Licence CC BY 4.0 (https://creativecommons.org/licenses/by/4.0)
